X: 2
T: Nora Crionna
R: jig
M: 6/8
L: 1/8
K: Gmaj
|:.G.G.G G2A | BAG d2B | .G.G.G GAB | A2B cBA |
G3 G2A | BAG dcB | AFA fef | A2B cBA :|
|: .d.d.d .dcB | BAG d2B | .d.d.d dcB | A2B c3 |
.d.e.d .dcB | BAG ABc | d^cd fef | A2B cBA :|
|: BGG G3 | BGG G3 | AFF cFF | AFF cFF |
BGG dGG | BAG ABc | d^cd fef | A2B cBA |
| BGG dGG | BGG dGG | AFF cFF | AFF cFF |
BGG dGG | BAG ABc | d^cd fef | A2B cBA ||
|: GB/c/d GB/c/d | GB/c/d dBG | GB/c/d GB/c/d | A2B cBA |
GB/c/d GB/c/d | GB/c/d dBG | GB/c/d f3 | A2B cBA |
GB/c/d gB/c/d | GB/c/d gdB | GB/c/d gdB | A2B cBA |
GB/c/d fB/c/d | gB/c/d g2a | b2g agf | A2B cBA ||
|: GBd g3 | g3 gdB | GBd gf/e/d | edB cBA |
GBd g3 | gba g2a | b2g agf | A2B cBA :|
|: dBG GDG | BGB d2B | dBG GFG | .A.A.A cBA |
dBG GDG | BGB dcB | AFA fef | A2B cBA |
dBG GDG | BGB d2B | dBG GFG | .A.A.A cBA |
BDD cDD | dDD cDD | d^cd fef | A2B cBA ||


Tune 2009	Setting 2009

